!!!OTL: IST DENN LIEBEN EIN VERBRECHEN
!!!ARE: Europa, Mitteleuropa, Deutschland
!!!SCT: E0645A
!!!YEM: Copyright 1995, estate of Helmut Schaffrath.
**kern
*ICvox
*Ivox
*M4/4
*k[f#]
*G:
{8d
8d
=1
4.g
8g
4g
8f#
8g
=2
8.b
16a
4a
4r}
{8a
8g
=3
8g
8f#
8e
8d
4.dd
8cc
=4
2b
4r}
{8d
8g
=5
4.b
8b
4b
8a
8g
=6
8.f#
16e
4e
4r}
{8g
8e
=7
4.d
8d
4d
8e
8f#
=8
2g
4r}
{8f#
8g
=9
4.a
8a
4a
8g
8a
=10
4b
4g
4r}
{8f#
8g
=11
4.a
8a
4.dd
8cc
=12
2b
4r}
{8d
8g
=13
4.b
8b
4b
8a
8g
=14
8.f#
16e
4e
4r}
{16a
16g
16f#
16e
=15
4.d
8d
4d
8e
8f#
=16
2g
4r}
==
!!!AGN: Liebes - Lied
!!!ONB: ESAC (Essen Associative Code) Database: ERK2
!!!AMT: simple quadruple
!!!AIN: vox
!!!EED: Helmut Schaffrath
!!!EEV: 1.0
*-
